X:1
T:What Did the Deep Sea Say?
M:4/4
L:1/8
K:C
 F2| A3 B F2 E2| D8| B3 BB BB B| A8| B3 d d2| B2| A2 A2 B3 D| A2 AA AF EE|\
 D8| F F2 A F2 F2| D6 AA| B B2 d d2 B2| A6 z A| B3 B d2 dB| A2 AA B2 B,B,|\
 F2 FA F2 E2| D6||
